svg/ubuntu-light.svg

<svg xmlns="http://www.w3.org/2000/svg" xml:space="preserve" viewBox="0 0 512 512"><path d="M72.6 169.4c40.1 0 72.6 32.5 72.6 72.6s-32.5 72.6-72.6 72.6S0 282.1 0 242s32.5-72.6 72.6-72.6M374.9 10.2c40.1 0 72.6 32.5 72.6 72.6s-32.5 72.6-72.6 72.6-72.6-32.5-72.6-72.6 32.5-72.6 72.6-72.6M51.8 343c36.6 92.2 126.4 152.2 225.6 150.5-14.2-17.8-22-39.8-22.3-62.6-6.5-.9-12.7-2-18.7-3.2-52.1-11-96.3-45.1-120.2-92.6-20 9.5-42.6 12.3-64.4 7.9m306.8 13.6c40.1 0 72.6 32.5 72.6 72.6s-32.5 72.6-72.6 72.6-72.6-32.5-72.6-72.6 32.5-72.6 72.6-72.6m64.8-8.3c17.7 14.2 30.3 33.8 35.8 55.9 65.7-81.4 70.6-196.1 12.2-282.8-8.3 20.6-23 38-42 49.5 30 56 27.7 123.7-6 177.4M72.8 138.6c7.2 0 14.4.7 21.5 2.2 12 2.6 23.4 7.2 33.7 13.8 32.4-47.2 85.8-75.8 143-76.5.2-5.7.9-11.4 2-17 3.5-16 10.6-31 20.9-43.7-93.5-7.5-182.8 39.9-228.8 121.5 2.6-.2 5.1-.3 7.7-.3" style="fill:#fff"/></svg>

<?xml version="1.0" encoding="utf-8"?>
<!-- Generator: Adobe Illustrator 28.2.0, SVG Export Plug-In . SVG Version: 6.00 Build 0)  -->
<svg version="1.1" id="Layer_1" xmlns="http://www.w3.org/2000/svg" xmlns:xlink="http://www.w3.org/1999/xlink" x="0px" y="0px"
	 viewBox="0 0 512 512" style="enable-background:new 0 0 512 512;" xml:space="preserve">
<style type="text/css">
	.st0{fill:#FFFFFF;}
</style>
<path class="st0" d="M72.6,169.4c40.1,0,72.6,32.5,72.6,72.6s-32.5,72.6-72.6,72.6S0,282.1,0,242S32.5,169.4,72.6,169.4z
	 M374.9,10.2c40.1,0,72.6,32.5,72.6,72.6s-32.5,72.6-72.6,72.6s-72.6-32.5-72.6-72.6S334.8,10.2,374.9,10.2z M51.8,343
	c36.6,92.2,126.4,152.2,225.6,150.5c-14.2-17.8-22-39.8-22.3-62.6c-6.5-0.9-12.7-2-18.7-3.2c-52.1-11-96.3-45.1-120.2-92.6
	C96.2,344.6,73.6,347.4,51.8,343z M358.6,356.6c40.1,0,72.6,32.5,72.6,72.6s-32.5,72.6-72.6,72.6S286,469.3,286,429.2
	S318.5,356.6,358.6,356.6z M423.4,348.3c17.7,14.2,30.3,33.8,35.8,55.9c65.7-81.4,70.6-196.1,12.2-282.8c-8.3,20.6-23,38-42,49.5
	C459.4,226.9,457.1,294.6,423.4,348.3z M72.8,138.6c7.2,0,14.4,0.7,21.5,2.2c12,2.6,23.4,7.2,33.7,13.8
	c32.4-47.2,85.8-75.8,143-76.5c0.2-5.7,0.9-11.4,2-17l0,0c3.5-16,10.6-31,20.9-43.7C200.4,9.9,111.1,57.3,65.1,138.9
	C67.7,138.7,70.2,138.6,72.8,138.6z"/>
</svg>
